build/img/soc-fb.svg

<svg width="18" height="32" viewBox="0 0 18 32" fill="none" xmlns="http://www.w3.org/2000/svg">
<path d="M11.1184 32H6.03923C5.19064 32 4.5031 31.3063 4.5031 30.45V18.8875H1.53613C0.687543 18.8875 0 18.1938 0 17.3375V12.3875C0 11.5312 0.687543 10.8375 1.53613 10.8375H4.4969V8.35625C4.4969 5.9 5.26497 3.80625 6.70819 2.30625C8.16999 0.79375 10.2017 0 12.5926 0L16.4639 0.00625C17.3125 0.00625 18 0.70625 18 1.55625V6.15625C18 7.0125 17.3125 7.70625 16.4639 7.70625H13.8562C13.0633 7.70625 12.8589 7.86875 12.8156 7.91875C12.7412 8 12.6607 8.23125 12.6607 8.86875V10.8313H16.2719C16.5444 10.8313 16.8045 10.9 17.0337 11.025C17.5231 11.3 17.8266 11.8188 17.8266 12.3813V17.3312C17.8266 18.1875 17.139 18.8813 16.2904 18.8813H12.6669V30.4375C12.6545 31.3062 11.967 32 11.1184 32ZM6.36132 30.125H10.7963V18.05C10.7963 17.4812 11.2546 17.0125 11.8245 17.0125H15.956V12.7063H11.8183C11.2546 12.7063 10.7901 12.2437 10.7901 11.6687V8.875C10.7901 8.14375 10.8644 7.30625 11.4095 6.68125C12.0723 5.925 13.1191 5.8375 13.8438 5.8375H16.1294V1.88125L12.5926 1.875C8.75224 1.875 6.36132 4.35625 6.36132 8.35V11.6687C6.36132 12.2375 5.90296 12.7063 5.3331 12.7063H1.85822V17.0125H5.3331C5.89677 17.0125 6.36132 17.475 6.36132 18.05V30.125Z" fill="#878183"/>
</svg>

<svg width="18" height="32" fill="none" xmlns="http://www.w3.org/2000/svg"><path d="M11.118 32H6.04a1.543 1.543 0 01-1.536-1.55V18.887H1.536A1.543 1.543 0 010 17.337v-4.95c0-.856.688-1.55 1.536-1.55h2.96v-2.48c0-2.457.769-4.55 2.212-6.05C8.17.793 10.202 0 12.593 0l3.87.006c.85 0 1.537.7 1.537 1.55v4.6c0 .857-.688 1.55-1.536 1.55h-2.608c-.793 0-.997.163-1.04.213-.075.081-.155.312-.155.95v1.962h3.61c.273 0 .534.069.763.194.49.275.793.794.793 1.356v4.95c0 .857-.688 1.55-1.537 1.55h-3.623v11.556c-.012.87-.7 1.563-1.549 1.563zm-4.757-1.875h4.435V18.05c0-.569.459-1.038 1.029-1.038h4.131v-4.306h-4.138a1.034 1.034 0 01-1.028-1.037V8.875c0-.731.074-1.569.62-2.194.662-.756 1.71-.843 2.434-.843h2.285V1.88l-3.536-.006c-3.84 0-6.232 2.481-6.232 6.475v3.319c0 .569-.458 1.037-1.028 1.037H1.858v4.306h3.475c.564 0 1.028.463 1.028 1.038v12.075z" fill="#878183"/></svg>
